Yaru++/status/16/battery-good-charging.svg

<svg height="16" width="16" xmlns="http://www.w3.org/2000/svg"><g fill="#808080"><path d="m8 13v-7h5v7z"/><path d="m6 12.338c.01.839-.015 1.451.262 1.953.138.251.374.45.666.56s.64.15 1.078.149l4.994-.002c.439 0 .786-.039 1.078-.148.293-.11.526-.31.664-.561.277-.502.249-1.114.258-1.953v-8.705c-.01-.839.02-1.454-.258-1.955a1.25 1.25 0 0 0 -.664-.559c-.292-.11-.64-.117-1.078-.117h-1v-1h-3v1h-.994c-.438 0-.786.01-1.078.117-.292.11-.528.308-.666.559-.277.501-.252 1.116-.262 1.955v8.703zm1-.014v-8.691c.01-.853.04-1.298.137-1.475.016-.029.057-.073.143-.105.06-.023.298-.053.726-.053h4.994c.428 0 .664.029.727.053.086.032.125.077.14.105.095.173.123.618.133 1.475v8.705c-.01.854-.038 1.298-.133 1.47-.016.03-.055.074-.14.106-.123.046-.349.086-.727.086l-4.994.002c-.378 0-.604-.04-.726-.086-.086-.032-.127-.077-.143-.105-.098-.178-.126-.62-.137-1.485z"/><path d="m2 14 2.5-6h-1.5v-5l-2.5 6h1.5z"/></g></svg>

<svg height="16" width="16" xmlns="http://www.w3.org/2000/svg">
    <g fill="gray">
        <path color="#000" d="M8 13V6h5v7z" overflow="visible" style="marker:none"/>
        <path color="#000" d="M6 12.338c.01.839-.015 1.451.262 1.953.138.251.374.45.666.56.292.11.64.15 1.078.149L13 14.998c.439 0 .786-.039 1.078-.148.293-.11.526-.31.664-.561.277-.502.249-1.114.258-1.953V3.631c-.01-.839.02-1.454-.258-1.955a1.25 1.25 0 0 0-.664-.559C13.786 1.007 13.438 1 13 1h-1V0H9v1h-.994c-.438 0-.786.01-1.078.117-.292.11-.528.308-.666.559-.277.501-.252 1.116-.262 1.955v8.703zm1-.014V3.633c.01-.853.04-1.298.137-1.475.016-.029.057-.073.143-.105.06-.023.298-.053.726-.053H13c.428 0 .664.029.727.053.086.032.125.077.14.105.095.173.123.618.133 1.475v8.705c-.01.854-.038 1.298-.133 1.47-.016.03-.055.074-.14.106-.123.046-.349.086-.727.086l-4.994.002c-.378 0-.604-.04-.726-.086-.086-.032-.127-.077-.143-.105-.098-.178-.126-.62-.137-1.485z" font-family="sans-serif" font-weight="400" overflow="visible" style="line-height:normal;font-variant-ligatures:none;font-variant-position:normal;font-variant-caps:normal;font-variant-numeric:normal;font-variant-alternates:normal;font-feature-settings:normal;text-indent:0;text-align:start;text-decoration-line:none;text-decoration-style:solid;text-decoration-color:#000;text-transform:none;shape-padding:0;isolation:auto;mix-blend-mode:normal;marker:none" white-space="normal"/>
        <path d="M2 14l2.5-6H3V3L.5 9H2z"/>
    </g>
</svg>
